picto/currency-exchange-framed.svg

<svg class="color-immutable" width="30" height="30" viewBox="0 0 30 30" fill="none" xmlns="http://www.w3.org/2000/svg"><path d="M29.9999 -6.10352e-05H-0.00012207V29.9999H29.9999V-6.10352e-05Z" fill="#2D327D"/><path d="M5.99988 5.99994V14.9999H7.58455C7.67718 14.592 7.843 14.2119 8.0686 13.8749H7.12488V7.12494H22.8749V13.8749H13.6812C13.9068 14.2119 14.0725 14.592 14.1652 14.9999H23.9999V5.99994H5.99988Z" fill="white"/><path d="M14.9749 7.87488C13.5251 7.87488 12.3499 9.05013 12.3499 10.4999C12.3499 11.9496 13.5251 13.1249 14.9749 13.1249C16.4246 13.1249 17.5999 11.9496 17.5999 10.4999C17.5999 9.05013 16.4246 7.87488 14.9749 7.87488ZM14.1201 11.106C13.9984 11.2503 13.8262 11.3224 13.6033 11.3224C13.366 11.3224 13.1815 11.2387 13.0495 11.0712C12.9367 10.9283 12.8803 10.7499 12.8803 10.5359C12.8803 10.3117 12.9473 10.1247 13.0813 9.97495C13.2153 9.82593 13.3934 9.75145 13.6156 9.75145C13.8227 9.75145 13.9894 9.81978 14.116 9.9565C14.2062 10.0529 14.2561 10.164 14.2657 10.2897H13.9426C13.9249 10.205 13.8869 10.1395 13.8288 10.0934C13.7707 10.0473 13.6972 10.0242 13.6084 10.0242C13.4662 10.0242 13.3599 10.084 13.2895 10.2036C13.2368 10.2945 13.2105 10.406 13.2105 10.5379C13.2105 10.6733 13.2382 10.7861 13.2935 10.8763C13.3639 10.9918 13.4682 11.0496 13.6063 11.0496C13.7047 11.0496 13.7831 11.0205 13.8416 10.9625C13.9001 10.9044 13.9361 10.8196 13.9498 10.7082H14.2759C14.265 10.8634 14.213 10.9959 14.1201 11.106ZM15.7591 11.2865H15.432V10.6333H14.8188V11.2865H14.4917V9.78738H14.8188V10.3565H15.432V9.78738H15.7591V11.2865ZM17.0098 10.4118V10.6692H16.3762V11.2865H16.0491V9.78738H17.1042V10.0642H16.3762V10.4118H17.0098Z" fill="white"/><path d="M10.8928 13.1249C9.44307 13.1249 8.26782 14.3002 8.26782 15.7499C8.26782 17.1997 9.44307 18.3749 10.8928 18.3749C12.3426 18.3749 13.5178 17.1997 13.5178 15.7499C13.5178 14.3002 12.3426 13.1249 10.8928 13.1249ZM11.5311 15.0497C11.3916 14.9527 11.2737 14.885 11.1773 14.8467C11.0809 14.8085 10.9807 14.7893 10.8768 14.7893C10.6006 14.7893 10.4045 14.9869 10.2882 15.3819H11.4039L11.2869 15.7142H10.2288C10.2274 15.7484 10.2267 15.7798 10.2267 15.8085C10.2267 15.84 10.2274 15.87 10.2288 15.8987H11.207L11.0819 16.231H10.2964C10.4181 16.596 10.6129 16.7786 10.8809 16.7786C10.9698 16.7786 11.0573 16.7652 11.1434 16.7386C11.2295 16.712 11.3567 16.6583 11.5248 16.5776V17.156C11.2117 17.2489 10.9855 17.2954 10.846 17.2954C10.5958 17.2954 10.3641 17.2148 10.1508 17.0534C9.91152 16.8743 9.7502 16.6001 9.6668 16.231H9.2792L9.40017 15.8987H9.61347C9.6107 15.8386 9.60935 15.797 9.60935 15.7736C9.60935 15.76 9.60935 15.7402 9.60935 15.7142H9.2792L9.40017 15.3819H9.6545C9.71052 15.1399 9.80765 14.9267 9.94572 14.7421C10.1768 14.4317 10.5021 14.2766 10.9219 14.2766C11.1297 14.2766 11.3109 14.3149 11.4654 14.3914C11.5255 14.4215 11.613 14.4742 11.7279 14.5493L11.5311 15.0497Z" fill="white"/><path d="M14.9999 18.7499C13.5501 18.7499 12.3749 19.9252 12.3749 21.3749C12.3749 22.8247 13.5501 23.9999 14.9999 23.9999C16.4496 23.9999 17.6249 22.8247 17.6249 21.3749C17.6249 19.9252 16.4496 18.7499 14.9999 18.7499ZM15.9176 22.8599C15.7986 22.9056 15.6722 22.9286 15.5382 22.9286C15.4588 22.9286 15.3905 22.9231 15.3331 22.9121C15.2757 22.9012 15.1738 22.8745 15.0276 22.8322C14.8731 22.7885 14.7459 22.7666 14.6461 22.7666C14.5695 22.7666 14.4984 22.7786 14.4328 22.8024C14.3672 22.8263 14.2886 22.8691 14.1969 22.9306L13.9386 22.5471C14.0753 22.4501 14.1737 22.3646 14.2339 22.2908C14.3433 22.1554 14.398 22.0187 14.398 21.8806C14.398 21.8068 14.3843 21.7295 14.357 21.6488H13.9222V21.3002H14.2093C14.1833 21.2374 14.1628 21.1909 14.1478 21.1608C14.1027 21.0596 14.0719 20.977 14.0556 20.9126C14.0391 20.8484 14.031 20.776 14.031 20.6953C14.031 20.4861 14.1075 20.3097 14.2606 20.1662C14.4507 19.9898 14.7152 19.9016 15.0543 19.9016C15.3865 19.9016 15.6438 19.9844 15.8264 20.1498C16.0089 20.3153 16.1029 20.5505 16.1084 20.8553H15.5198C15.517 20.7158 15.4842 20.6105 15.4214 20.5394C15.3393 20.4465 15.2211 20.4 15.0666 20.4C14.9532 20.4 14.8595 20.4311 14.7857 20.4933C14.7119 20.5556 14.6749 20.6345 14.6749 20.7302C14.6749 20.8109 14.6982 20.9072 14.7447 21.0193C14.7925 21.1369 14.8287 21.2305 14.8533 21.3002H15.3968V21.6488H14.9661C14.9784 21.7103 14.9846 21.7706 14.9846 21.8293C14.9846 21.9291 14.9583 22.022 14.9056 22.1082C14.853 22.1943 14.7624 22.2928 14.6339 22.4036C14.7665 22.3448 14.8923 22.3154 15.0112 22.3154C15.0905 22.3154 15.1876 22.3304 15.3024 22.3605C15.4255 22.3934 15.5151 22.4097 15.5711 22.4097C15.7228 22.4097 15.8527 22.3517 15.9607 22.2354L16.2129 22.6682C16.135 22.7501 16.0365 22.8141 15.9176 22.8599Z" fill="white"/><path d="M21.7697 18.7535C21.7382 18.7344 21.65 18.7022 21.5051 18.6571V19.4631C21.7936 19.4275 21.9379 19.2936 21.9379 19.0611C21.9378 18.9216 21.8817 18.8191 21.7697 18.7535Z" fill="white"/><path d="M20.8652 17.6912C20.8652 17.7883 20.894 17.8631 20.9513 17.9157C21.0088 17.9684 21.1106 18.0125 21.2569 18.048V17.3343C20.9958 17.3576 20.8652 17.4765 20.8652 17.6912Z" fill="white"/><path d="M21.3749 15.7499C19.9251 15.7499 18.7499 16.9252 18.7499 18.3749C18.7499 19.8247 19.9251 20.9999 21.3749 20.9999C22.8246 20.9999 23.9999 19.8247 23.9999 18.3749C23.9999 16.9252 22.8246 15.7499 21.3749 15.7499ZM22.2844 19.6004C22.186 19.7057 22.0769 19.7827 21.9573 19.8311C21.8377 19.8796 21.687 19.9087 21.5052 19.9183V20.3346H21.257V19.9163C20.9685 19.8998 20.7429 19.8268 20.5803 19.6968C20.3533 19.515 20.2384 19.2587 20.2357 18.9278H20.8182C20.8154 19.2532 20.9617 19.4316 21.2571 19.463V18.5955C20.9836 18.519 20.7949 18.4506 20.691 18.3905C20.5584 18.314 20.4614 18.2233 20.3998 18.1187C20.3383 18.0142 20.3076 17.8874 20.3076 17.7383C20.3076 17.573 20.3506 17.4256 20.4368 17.2964C20.5229 17.1671 20.6453 17.067 20.8039 16.9959C20.9174 16.9454 21.0684 16.9139 21.2571 16.9016V16.5324H21.5053V16.9016C21.7965 16.9166 22.0204 16.9976 22.1769 17.1446C22.3335 17.2916 22.4145 17.4962 22.4199 17.7587H21.8642C21.8587 17.51 21.7391 17.3705 21.5053 17.3404V18.1053C21.5244 18.1108 21.5784 18.1245 21.6673 18.1463C21.9612 18.2229 22.1691 18.3166 22.2907 18.4273C22.4411 18.5654 22.5163 18.7534 22.5163 18.9913C22.5162 19.2333 22.4388 19.4363 22.2844 19.6004Z" fill="white"/><path d="M25.4999 2.99994C26.3249 2.99994 26.9999 3.67494 26.9999 4.49994V25.4999C26.9999 26.3249 26.3249 26.9999 25.4999 26.9999H4.49988C3.67488 26.9999 2.99988 26.3249 2.99988 25.4999V4.49994C2.99988 3.67494 3.67488 2.99994 4.49988 2.99994H25.4999ZM25.4999 2.62494H4.49988C3.466 2.62494 2.62488 3.46606 2.62488 4.49994V25.4999C2.62488 26.5338 3.466 27.3749 4.49988 27.3749H25.4999C26.5338 27.3749 27.3749 26.5338 27.3749 25.4999V4.49994C27.3749 3.46606 26.5338 2.62494 25.4999 2.62494Z" fill="white"/></svg>

<svg class="color-immutable" width="30" height="30" viewBox="0 0 30 30" fill="none" xmlns="http://www.w3.org/2000/svg"><g clip-path="url(#a)"><path d="M30 0H0v30h30V0Z" fill="#2D327D"/><path d="M6 6v9h1.585c.092-.408.258-.788.484-1.125h-.944v-6.75h15.75v6.75H13.68c.226.337.392.717.484 1.125H24V6H6Z" fill="#fff"/><path d="M14.975 7.875a2.625 2.625 0 1 0 0 5.25 2.625 2.625 0 0 0 0-5.25Zm-.855 3.231c-.122.144-.294.216-.517.216a.665.665 0 0 1-.553-.25.837.837 0 0 1-.17-.536.81.81 0 0 1 .201-.561.683.683 0 0 1 .535-.224.65.65 0 0 1 .5.206c.09.096.14.207.15.333h-.323a.326.326 0 0 0-.114-.197.344.344 0 0 0-.22-.069.346.346 0 0 0-.32.18.657.657 0 0 0-.079.334c0 .135.028.248.083.338.07.116.175.174.313.174a.32.32 0 0 0 .236-.088.419.419 0 0 0 .108-.254h.326a.673.673 0 0 1-.156.398Zm1.64.18h-.328v-.653h-.613v.654h-.327v-1.5h.327v.57h.613v-.57h.327v1.5Zm1.25-.874v.257h-.634v.617h-.327V9.787h1.055v.277h-.728v.348h.634ZM10.893 13.125a2.625 2.625 0 1 0 0 5.25 2.625 2.625 0 0 0 0-5.25Zm.638 1.925a1.86 1.86 0 0 0-.354-.203.809.809 0 0 0-.3-.058c-.276 0-.473.198-.589.593h1.116l-.117.332h-1.058a2.318 2.318 0 0 0 0 .185h.978l-.125.332h-.786c.122.365.317.548.585.548a.885.885 0 0 0 .262-.04c.086-.027.214-.08.382-.161v.578c-.313.093-.54.14-.679.14-.25 0-.482-.081-.695-.243-.24-.179-.4-.453-.484-.822h-.388l.121-.332h.213a3.184 3.184 0 0 1-.004-.125v-.06h-.33l.121-.332h.255a1.69 1.69 0 0 1 .29-.64c.232-.31.557-.465.977-.465.208 0 .389.038.543.114.06.03.148.083.263.158l-.197.5ZM15 18.75A2.625 2.625 0 1 0 15 24a2.625 2.625 0 0 0 0-5.25Zm.918 4.11a1.049 1.049 0 0 1-.38.069c-.08 0-.148-.006-.205-.017a3.995 3.995 0 0 1-.305-.08 1.464 1.464 0 0 0-.382-.065.62.62 0 0 0-.213.035 1.157 1.157 0 0 0-.236.129l-.258-.384c.136-.097.235-.182.295-.256a.651.651 0 0 0 .164-.41.723.723 0 0 0-.041-.232h-.435V21.3h.287a2.398 2.398 0 0 0-.061-.14 1.624 1.624 0 0 1-.092-.247.875.875 0 0 1-.025-.218c0-.209.076-.385.23-.529.19-.176.454-.264.793-.264.332 0 .59.082.772.248.183.165.277.4.282.705h-.588c-.003-.14-.036-.245-.099-.316-.082-.093-.2-.139-.354-.139a.421.421 0 0 0-.281.093.297.297 0 0 0-.111.237c0 .08.023.177.07.29.048.117.084.21.108.28h.544v.349h-.43a.92.92 0 0 1 .018.18c0 .1-.027.193-.08.28a1.356 1.356 0 0 1-.271.295.932.932 0 0 1 .377-.089c.08 0 .177.015.291.045.123.033.213.05.27.05a.513.513 0 0 0 .389-.175l.252.433a.795.795 0 0 1-.295.192ZM21.77 18.753a1.667 1.667 0 0 0-.265-.096v.806c.289-.036.433-.17.433-.402a.331.331 0 0 0-.168-.308ZM20.865 17.691c0 .097.029.172.086.225.058.052.16.096.306.132v-.714c-.261.024-.392.143-.392.357Z" fill="#fff"/><path d="M21.375 15.75a2.625 2.625 0 1 0 0 5.25 2.625 2.625 0 0 0 0-5.25Zm.91 3.85a.92.92 0 0 1-.328.231c-.12.049-.27.078-.452.087v.417h-.248v-.419c-.289-.016-.514-.09-.677-.22-.227-.181-.342-.437-.344-.768h.582c-.003.325.144.504.44.535v-.867c-.274-.077-.463-.145-.567-.206a.777.777 0 0 1-.291-.271.738.738 0 0 1-.092-.38c0-.166.043-.313.129-.443a.841.841 0 0 1 .367-.3 1.35 1.35 0 0 1 .453-.094v-.37h.248v.37c.292.015.515.096.672.243.157.147.238.351.243.614h-.556c-.005-.249-.125-.389-.359-.419v.765c.02.006.073.02.162.041.294.077.502.17.624.281.15.138.225.326.225.564a.856.856 0 0 1-.232.61Z" fill="#fff"/><path d="M25.5 3c.825 0 1.5.675 1.5 1.5v21c0 .825-.675 1.5-1.5 1.5h-21c-.825 0-1.5-.675-1.5-1.5v-21C3 3.675 3.675 3 4.5 3h21Zm0-.375h-21A1.877 1.877 0 0 0 2.625 4.5v21c0 1.034.841 1.875 1.875 1.875h21a1.877 1.877 0 0 0 1.875-1.875v-21A1.877 1.877 0 0 0 25.5 2.625Z" fill="#fff"/></g><defs><clipPath id="a"><path fill="#fff" d="M0 0h30v30H0z"/></clipPath></defs></svg>
